brandFactory_export/3.Masa/Imagen_3Masa.svg

<?xml version="1.0" encoding="UTF-8"?>
<svg width="24px" height="24px" viewBox="0 0 24 24" version="1.1" xmlns="http://www.w3.org/2000/svg" xmlns:xlink="http://www.w3.org/1999/xlink">
    <title>3.Masa/Imagen_3Masa</title>
    <g id="Symbols" stroke="none" stroke-width="1" fill="none" fill-rule="evenodd">
        <g id="3.Masa/Imagen_3Masa" fill="#5CB615" fill-rule="nonzero">
            <path d="M21.2302521,13.6890756 C21.4789916,13.3630252 21.4151261,12.8957983 21.092437,12.6436975 L17.1966387,9.63529412 C16.9310924,9.42689076 16.5546218,9.43361345 16.2890756,9.64537815 L11.8352941,13.2184874 L10.7596639,12.1932773 C10.4907563,11.9344538 10.0672269,11.9210084 9.78151261,12.1630252 L3.4487395,17.4907563 C3.13613445,17.7529412 3.09243697,18.2235294 3.35462185,18.5428571 C3.49915966,18.7210084 3.71092437,18.8117647 3.92268908,18.8117647 C4.0907563,18.8117647 4.25882353,18.7546218 4.39327731,18.6403361 L10.2252101,13.7361345 L14.2789916,17.5915966 C14.5747899,17.8739496 15.0420168,17.8605042 15.3210084,17.5613445 C15.6,17.2621849 15.5865546,16.7882353 15.2907563,16.5058824 L12.9277311,14.2571429 L16.7630252,11.1781513 L20.2016807,13.8336134 C20.5176471,14.0789916 20.9815126,14.0151261 21.2302521,13.6890756 L21.2302521,13.6890756 Z M5.8789916,5.52773109 C4.38655462,5.52773109 3.17310924,6.75462185 3.17310924,8.2605042 C3.17310924,9.7697479 4.38655462,10.9932773 5.8789916,10.9932773 C7.37142857,10.9932773 8.58487395,9.76638655 8.58487395,8.2605042 C8.58487395,6.75462185 7.37142857,5.52773109 5.8789916,5.52773109 Z M21.9193277,3.02689076 C22.810084,3.02689076 23.6235294,3.72605042 23.6235294,4.49579832 L23.6235294,19.2756303 C23.6235294,20.0453782 22.810084,20.7445378 21.9193277,20.7445378 L1.70420168,20.7445378 C0.796638655,20.7445378 0.00336134454,20.0554622 0.00336134454,19.2756303 L0.00672268908,4.49579832 C0.00672268908,3.71260504 0.803361345,3.02689076 1.70756303,3.02689076 L21.9193277,3.02689076 Z M5.8789916,9.50420168 C5.2,9.50420168 4.6487395,8.94621849 4.6487395,8.26386555 C4.6487395,7.57815126 5.2,7.02352941 5.8789916,7.02352941 C6.55798319,7.02352941 7.1092437,7.57815126 7.1092437,8.26386555 C7.10588235,8.94621849 6.55462185,9.50420168 5.8789916,9.50420168 Z" id="Imagen_3Masa"></path>
        </g>
    </g>
</svg>

<svg width="24" height="24" viewBox="0 0 24 24" xmlns="http://www.w3.org/2000/svg"><path d="M21.23 13.69a.751.751 0 00-.138-1.046l-3.895-3.009a.732.732 0 00-.908.01l-4.454 3.573-1.075-1.025a.731.731 0 00-.978-.03l-6.333 5.328a.752.752 0 00-.094 1.052.73.73 0 001.038.097l5.832-4.904 4.054 3.856a.732.732 0 001.042-.03.754.754 0 00-.03-1.056l-2.363-2.249 3.835-3.079 3.439 2.656a.733.733 0 001.028-.145zM5.88 5.527c-1.492 0-2.706 1.227-2.706 2.733 0 1.509 1.214 2.732 2.706 2.732s2.706-1.227 2.706-2.732c0-1.506-1.214-2.733-2.706-2.733zm16.04-2.501c.891 0 1.705.7 1.705 1.469v14.78c0 .77-.814 1.469-1.705 1.469H1.704c-.907 0-1.7-.69-1.7-1.47l.003-14.78c0-.782.796-1.468 1.7-1.468H21.92zM5.88 9.504c-.679 0-1.23-.558-1.23-1.24 0-.686.551-1.24 1.23-1.24.679 0 1.23.554 1.23 1.24a1.242 1.242 0 01-1.23 1.24z" fill="#5CB615" fill-rule="nonzero"/></svg>
